assets/images/arrow_circle_right.svg

<svg fill="none" height="80" viewBox="0 0 80 80" width="80" xmlns="http://www.w3.org/2000/svg" xmlns:xlink="http://www.w3.org/1999/xlink"><mask id="a" height="80" maskUnits="userSpaceOnUse" width="80" x="0" y="0"><path d="m0 0h80v80h-80z" fill="#d9d9d9"/></mask><g mask="url(#a)"><path d="m40 50.9616 10.9616-10.9616-10.9616-10.9616-2.2949 2.2949 7 7h-16.3718v3.3334h16.3718l-7 7zm.0112 19.0384c-4.1485 0-8.0488-.7872-11.7009-2.3616-3.652-1.5744-6.8288-3.7112-9.5304-6.4101-2.7015-2.699-4.8402-5.8729-6.4161-9.5215s-2.3638-7.5472-2.3638-11.6956c0-4.1485.7872-8.0488 2.3616-11.7009 1.5744-3.652 3.7112-6.8288 6.4101-9.5304 2.699-2.7015 5.8729-4.8402 9.5215-6.4161s7.5472-2.3638 11.6956-2.3638c4.1485 0 8.0488.7872 11.7009 2.3616 3.652 1.5744 6.8288 3.7111 9.5304 6.4101 2.7015 2.699 4.8402 5.8729 6.4161 9.5215s2.3638 7.5472 2.3638 11.6956c0 4.1485-.7872 8.0488-2.3616 11.7009-1.5744 3.652-3.7112 6.8288-6.4101 9.5304-2.699 2.7015-5.8729 4.8402-9.5215 6.4161s-7.5472 2.3638-11.6956 2.3638zm-.0112-3.3333c7.4444 0 13.75-2.5834 18.9167-7.75 5.1666-5.1667 7.75-11.4723 7.75-18.9167s-2.5834-13.75-7.75-18.9167c-5.1667-5.1666-11.4723-7.75-18.9167-7.75s-13.75 2.5834-18.9167 7.75c-5.1666 5.1667-7.75 11.4723-7.75 18.9167s2.5834 13.75 7.75 18.9167c5.1667 5.1666 11.4723 7.75 18.9167 7.75z" fill="#fff"/></g></svg>

<svg width="80" height="80" viewBox="0 0 80 80" fill="none" xmlns="http://www.w3.org/2000/svg">
<mask id="mask0_627_644" style="mask-type:alpha" maskUnits="userSpaceOnUse" x="0" y="0" width="80" height="80">
<rect width="80" height="80" fill="#D9D9D9"/>
</mask>
<g mask="url(#mask0_627_644)">
<path d="M40 50.9616L50.9616 40L40 29.0384L37.7051 31.3333L44.7051 38.3333H28.3333V41.6667H44.7051L37.7051 48.6667L40 50.9616ZM40.0112 70C35.8627 70 31.9624 69.2128 28.3103 67.6384C24.6583 66.064 21.4815 63.9272 18.7799 61.2283C16.0784 58.5293 13.9397 55.3554 12.3638 51.7068C10.7879 48.0582 10 44.1596 10 40.0112C10 35.8627 10.7872 31.9624 12.3616 28.3103C13.936 24.6583 16.0728 21.4815 18.7717 18.7799C21.4707 16.0784 24.6446 13.9397 28.2932 12.3638C31.9418 10.7879 35.8404 10 39.9888 10C44.1373 10 48.0376 10.7872 51.6897 12.3616C55.3417 13.936 58.5185 16.0727 61.2201 18.7717C63.9216 21.4707 66.0603 24.6446 67.6362 28.2932C69.2121 31.9418 70 35.8404 70 39.9888C70 44.1373 69.2128 48.0376 67.6384 51.6897C66.064 55.3417 63.9272 58.5185 61.2283 61.2201C58.5293 63.9216 55.3554 66.0603 51.7068 67.6362C48.0582 69.2121 44.1596 70 40.0112 70ZM40 66.6667C47.4444 66.6667 53.75 64.0833 58.9167 58.9167C64.0833 53.75 66.6667 47.4444 66.6667 40C66.6667 32.5556 64.0833 26.25 58.9167 21.0833C53.75 15.9167 47.4444 13.3333 40 13.3333C32.5556 13.3333 26.25 15.9167 21.0833 21.0833C15.9167 26.25 13.3333 32.5556 13.3333 40C13.3333 47.4444 15.9167 53.75 21.0833 58.9167C26.25 64.0833 32.5556 66.6667 40 66.6667Z" fill="white"/>
</g>
</svg>
